tools/download-figma-icons/icons/action/drag.svg

<svg width="24" height="24" viewBox="0 0 24 24" fill="none" xmlns="http://www.w3.org/2000/svg">
<path fill-rule="evenodd" clip-rule="evenodd" d="M19.9205 4.0795C19.4812 3.64017 18.7688 3.64017 18.3295 4.0795L4.0795 18.3295L4.00228 18.4149C3.64188 18.8568 3.66762 19.5086 4.0795 19.9205C4.51884 20.3598 5.23116 20.3598 5.6705 19.9205L19.9205 5.6705L19.9977 5.58505C20.3581 5.14318 20.3324 4.49139 19.9205 4.0795ZM19.9205 13.8295C19.4812 13.3902 18.7688 13.3902 18.3295 13.8295L13.8295 18.3295L13.7523 18.4149C13.3919 18.8568 13.4176 19.5086 13.8295 19.9205C14.2688 20.3598 14.9812 20.3598 15.4205 19.9205L19.9205 15.4205L19.9977 15.3351C20.3581 14.8932 20.3324 14.2414 19.9205 13.8295Z" fill="black"/>
</svg>

<svg xmlns="http://www.w3.org/2000/svg" width="24" height="24" fill="none" viewBox="0 0 24 24"><path fill="currentColor" fill-rule="evenodd" d="M19.92 4.08a1.125 1.125 0 0 0-1.59 0L4.08 18.33l-.078.085A1.125 1.125 0 0 0 5.67 19.92L19.92 5.67l.078-.086a1.125 1.125 0 0 0-.078-1.505m0 9.75a1.125 1.125 0 0 0-1.59 0l-4.5 4.5-.078.085a1.125 1.125 0 0 0 1.668 1.506l4.5-4.5.078-.086a1.125 1.125 0 0 0-.078-1.506" clip-rule="evenodd"/></svg>
